X:6014
T:Sho-ho, a lullaby
O:england
B:Joyce, P. W.; "Old Irish Folk Music and Songs"
R:song air
L:1/8
M:C
K:C
"Gentle: rather slow"\
F3 G {A}c2 AG|A2 A2 c4|f3 g {A}c2 AF|G2 G2 G4|
F3 G {A}c2 AG|A2 A2 f4|g2 fe f2 ed|c2 A2 A4||
c3 A f2 ef|d>c AB c4|d2 A2 c2 AF|G2 G2 G4|
F3 G {A}c2 AG|A2 A2 f4|g2 fe f2 ed|c2 A2 A4||
